X: 24
T:24.  Jonah
C:c 2003 Harry Bolick  
R:Breakdown
O:United States
A:Hastings On Hudson, New York
M:2/4
L:1/8
Q:180
K:G
 |: "G"  B,B2A| GG/2A/2 G/2E/2D | "D" AA/2B/2 A/2G/2E|"G" GG/2A/2 G/2E/2D|
 B,B2A| GG/2A/2 G/2E/2D |"D" AA G/2E/2D| "Em" E4:|
Bb2a| gg/2a/2 g/2f/2e|"D" aa/2b/2 a/2g/2f|"G" gg/2a/2 g/2f/2e|
Bb2a| gg/2a/2 g/2f/2e|"D" aa g/2e/2d|"Em" e4:|
